communes/3669.svg

<?xml version="1.0" encoding="UTF-8"?>
<!DOCTYPE svg  PUBLIC '-//W3C//DTD SVG 1.1//EN'  'http://www.w3.org/Graphics/SVG/1.1/DTD/svg11.dtd'>
<svg width="438" height="480" viewBox="21 15 438 480" xmlns="http://www.w3.org/2000/svg">
<metadata>
<rdf:RDF xmlns:dc="http://purl.org/dc/elements/1.1/" xmlns:rdf="http://www.w3.org/1999/02/22-rdf-syntax-ns#">
<rdf:Description dc:date="2006-10-30" dc:format="image/svg+xml" dc:language="de" dc:title="Wappen Tschappina (CH-GR)">
<dc:creator rdf:resource="http://de.wikipedia.org/wiki/Benutzer:Bernina"/>
</rdf:Description>
</rdf:RDF>
</metadata>
<title>Wappen Tschappina (CH-GR)</title>
<defs>
<clipPath id="a">
<path d="m360 4140a3240 3240 0 0 0 6480 0v-3870h-6480v3870z"/>
</clipPath>
<style type="text/css"><![CDATA[
  .Rand2 { stroke: #202020; stroke-width:30; }
  .Rand6 { stroke: #202020; stroke-width:90; }
  .Schwarz { fill: #000000; }
  .Rot { fill: #ff0000; }
  .Gold { fill: #ffef00; }
  ]]></style>
</defs>
<g transform="scale(.066667)" fill="none" fill-rule="evenodd" stroke-miterlimit="10" stroke-width="10">
<g clip-path="url(#a)">
<path class="Rot" d="m-225-225v7650h7650v-7650h-7650z"/>
<path class="Gold Rand2" d="m1350 6570h-900v900h6300v-900h-900v-900h-900v-900h-900v-900h-900v900h-900v900h-900v900z"/>
<path class="Schwarz" d="m3420 990v270h360v-270h-360z"/>
<path class="Gold Rand2" d="m4500 2790c8-98 15-195 0-270s-52-128-90-180c-90-90-180-180-240-375s-90-495-180-645-240-150-390-150-300 0-390 150-120 450-180 645-150 285-240 375c-38 52-75 105-90 180s-8 172 0 270c210-30 420-60 570-90s240-60 330-60 180 30 330 60 360 60 570 90z"/>
<path class="Gold Rand2" d="m4500 2790a900 240 0 0 0-1800 0 900 240 0 0 0 1800 0z"/>
<path class="Gold Rand2" d="m3925.9 991.06a120 210-345 0 0-231.82-62.12 120 210-345 0 0 231.82 62.12z"/>
<path class="Gold Rand2" d="m3505.9 928.94a120 210-15 0 0-231.82 62.12 120 210-15 0 0 231.82-62.12z"/>
<path class="Gold Rand2" d="m3720 930a120 210 0 0 0-240 0 120 210 0 0 0 240 0z"/>
<path class="Gold Rand2" d="m3570 2565c0 75 0 150-15 217-15 68-45 128-60 180-15 53-15 98 5 143s60 90 100 90 80-45 100-90 20-90 5-143c-15-52-45-112-60-180-15-67-15-142-15-217"/>
<path class="Rand2" d="m3150 1440c90-30 180-60 285-75s225-15 330 0 195 45 285 75"/>
<path class="Rand2" d="m2760 2370c160-40 320-80 460-100s260-20 380-20 240 0 380 20 300 60 460 100"/>
</g>
<path class="Rand6" d="m360 4140a3240 3240 0 0 0 6480 0v-3870h-6480v3870z"/>
</g>
</svg>

<?xml version="1.0" encoding="iso-8859-1"?>
<!DOCTYPE svg PUBLIC "-//W3C//DTD SVG 1.1//EN" "http://www.w3.org/Graphics/SVG/1.1/DTD/svg11.dtd">
<!-- Auto-generated by fig2svg tool
     Date: Mon Oct 30 15:46:05 2006 -->
<svg xmlns="http://www.w3.org/2000/svg"
     width="438" height="480" viewBox="21 15 438 480">
<metadata>
<rdf:RDF xmlns:rdf="http://www.w3.org/1999/02/22-rdf-syntax-ns#"
         xmlns:dc="http://purl.org/dc/elements/1.1/">
<rdf:Description
 dc:title="Wappen Tschappina (CH-GR)"
 dc:date="2006-10-30"
 dc:format="image/svg+xml"
 dc:language="de">
<dc:creator rdf:resource="http://de.wikipedia.org/wiki/Benutzer:Bernina" />
</rdf:Description>
</rdf:RDF>
</metadata>
<title>
Wappen Tschappina (CH-GR)
</title>
<defs>
<clipPath id="clippath">
<path d="M360,4140 A3240,3240 0.0 0 0 6840,4140 L6840,270 L360,270 L360,4140 Z" />
</clipPath>
<style type="text/css">
  <![CDATA[
  .Rand2 { stroke: #202020; stroke-width:30; }
  .Rand6 { stroke: #202020; stroke-width:90; }
  .Schwarz { fill: #000000; }
  .Rot { fill: #ff0000; }
  .Gold { fill: #ffef00; }
  ]]>
</style>
</defs>
<g stroke="none" stroke-miterlimit="10" stroke-width="10"
   stroke-linecap="butt" stroke-linejoin="miter"
   fill="none" fill-rule="evenodd" transform="scale(0.066667)">
<g clip-path="url(#clippath)">
<path id="feld-1" class="Rot"
      d="M-225,-225 L-225,7425 L7425,7425 L7425,-225 L-225,-225 Z" />
<path id="stufe-1" class="Gold Rand2"
      d="M1350,6570 L450,6570 L450,7470 L6750,7470 L6750,6570 L5850,6570
         L5850,5670 L4950,5670 L4950,4770 L4050,4770 L4050,3870 L3150,3870
         L3150,4770 L2250,4770 L2250,5670 L1350,5670 L1350,6570 Z" />
<path id="glocke-schwarz-1" class="Schwarz"
      d="M3420,990 L3420,1260 L3780,1260 L3780,990 L3420,990 Z" />
<path id="glocke1-1" class="Gold Rand2"
      d="M4500,2790 C4508,2692 4515,2595 4500,2520
         C4485,2445 4448,2392 4410,2340 C4320,2250 4230,2160 4170,1965
         C4110,1770 4080,1470 3990,1320 C3900,1170 3750,1170 3600,1170
         C3450,1170 3300,1170 3210,1320 C3120,1470 3090,1770 3030,1965
         C2970,2160 2880,2250 2790,2340 C2752,2392 2715,2445 2700,2520
         C2685,2595 2692,2692 2700,2790 C2910,2760 3120,2730 3270,2700
         C3420,2670 3510,2640 3600,2640 C3690,2640 3780,2670 3930,2700
         C4080,2730 4290,2760 4500,2790 Z" />
<path id="glocke2-1" class="Gold Rand2"
      d="M4500,2790 A900,240 0.0 0 0 2700,2790 A900,240 0.0 0 0 4500,2790 Z" />
<path id="glocke3-1" class="Gold Rand2"
      d="M3925.91,991.06 A120,210 -345.0 0 0 3694.09,928.94
         A120,210 -345.0 0 0 3925.91,991.06 Z" />
<path id="glocke3-2" class="Gold Rand2"
      d="M3505.91,928.94 A120,210 -15.0 0 0 3274.09,991.06
         A120,210 -15.0 0 0 3505.91,928.94 Z" />
<path id="glocke4-1" class="Gold Rand2"
      d="M3720,930 A120,210 0.0 0 0 3480,930 A120,210 0.0 0 0 3720,930 Z" />
<path id="glocke4-2" class="Gold Rand2"
      d="M3570,2565 C3570,2640 3570,2715 3555,2782
         C3540,2850 3510,2910 3495,2962 C3480,3015 3480,3060 3500,3105
         C3520,3150 3560,3195 3600,3195 C3640,3195 3680,3150 3700,3105
         C3720,3060 3720,3015 3705,2962 C3690,2910 3660,2850 3645,2782
         C3630,2715 3630,2640 3630,2565" />
<path id="glocke-linie-1" class="Rand2"
      d="M3150,1440 C3240,1410 3330,1380 3435,1365
         C3540,1350 3660,1350 3765,1365 C3870,1380 3960,1410 4050,1440" />
<path id="glocke-linie-2" class="Rand2"
      d="M2760,2370 C2920,2330 3080,2290 3220,2270
         C3360,2250 3480,2250 3600,2250 C3720,2250 3840,2250 3980,2270
         C4120,2290 4280,2330 4440,2370" />
</g>
<path id="clip-boundary" class="Rand6"
      d="M360,4140 A3240,3240 0.0 0 0 6840,4140 L6840,270 L360,270 L360,4140 Z" />
</g>
</svg>
